X:1
T:Title
%%score ( 1 2 ) ( 3 4 )
L:1/8
M:4/4
K:F
V:1 treble nm="Choir Aahs, Staff"
V:2 treble 
V:3 bass nm="Choir Aahs, Staff-1"
V:4 bass 
V:1
 [Ac]2 [Ac]2- [Ac]/ z/ [GB] [FA]2 | [EG]2 F2 D2 C2 | [CE]2 [CF]2 [CG]2 [FA]2 | [FB]2 [EG]6 | %4
w: By~George~F.~Handel,~1741 * * * *||||
 [Ec]2 [Fc]2 [EB]2 [FA]2 | [^CG]2 [DF]4 D2 | [DF]2 [CE]2 [EA]2 [Ac]2 | [_A=B]2 =A6 | %8
w: ||||
 [Ac]2 [Ac]2 [GB]2 [^FA]2 | [EG]2 [D^F]2 [EG]2 [FA]2 | D2 [DB]2 [GB]2 [^FB]2 | [^FA]2 G6 | %12
w: ||||
 [B,G]2 [B,D]2- [B,D]/ z/ [B,^C] D2 | [DE]2 [DF]2 E2 [DF]2 | [CG]2 [FA]2 G2 [FA]2 | z2 c6 | %16
w: ||||
 [Dd]2 [EG]2 [DF]2 [EG]2 | [FA]2 [GB]2 [EG]2 [Fc]2 | [Fd]2 [FA]2 [FA]2 [EA]2 | [EG]2 F6 |] %20
w: ||||
V:2
 x8 | x8 | x8 | x8 | x8 | x8 | x8 | x8 | x8 | x8 | x8 | x8 | x8 | x8 | x8 | [EB]2 F2 E2 F2 | x8 | %17
 x8 | x8 | x8 |] %20
V:3
 [F,C]2 [F,C]2- [F,C]/ z/ [F,C] [F,C]2 | [F,B,]2 A,2 B,2 [F,A,]2 | [F,G,]2 [F,A,]2 [E,C]2 [F,C]2 | %3
 [D,F,]2 [C,C]6 | [B,C]2 C2- C/ z/ C [F,C]2 | [E,A,]2 [D,A,]4 [D,F,]2 | z2 A,2 C2 z2 | %7
 [E,D]2 [A,,C]6 | z2 ^F,2 G,2 z2 | [D,B,]2 [D,C]4 [D,C]2 | [^F,C]2 [G,B,]2 [B,,D]2 [D,D]2 | %11
 [D,C]2 [G,,B,]6 | [G,,G,]2 [B,,G,]2- [B,,G,]/ z/ [B,,G,] [B,,G,]2 | z2 A,4 z2 | %14
 [E,C]2 [F,C]2 [E,C]2 [F,C]2 | [G,C]2 C2- [G,C-]2 [A,C]2 | [B,D]2 C2- C/ z/ C C2 | %17
 z2[K:bass] C4 z2 | [B,,F,]2 [C,C]2 [C,C]2 [C,B,]2 | [C,B,]2 [F,A,]6 |] %20
V:4
 x8 | z2 F,4 z2 | x8 | x8 | z2 A,2 G,2 z2 | x8 | [=B,,A,]2 E,2- E,/ z/ E, [E,E]2 | x8 | %8
 [A,,A,]2 D,2- D,/ z/ D, [D,A,]2 | x8 | x8 | x8 | x8 | [G,,B,]2 D,2 ^C,2 [D,A,]2 | x8 | z2 A,2 z4 | %16
 x8 | C2[K:bass] C,2 B,,2 [A,,C]2 | x8 | x8 |] %20

